X: 187
T: No Corn on Tygart
B: canberra pickers and fiddlers
B: old time tunes update
B: tunes
M:C|
L:1/8
R: Reel
Q: 1/4=100
K:G
V:1 
(3DEF|G2EG D2 GA|BABA Bd3|G2 EG D2GA|Be2f e2d|
gage d2ge|BdB2 AGED| GAGE D2 GA|BGA2 G2:||
|:ef|g2 (3fgf e2d2|BGAB A G2|g3a gfeg|a3b a2ba|
g2ag e2d2|B2{cd}B2 AGED|G2EG D2 GA|BGA2 G2:|]
% abcbook-tune_id 67a7d9ec6e2f3b549fef68ae
% abcbook-tune_composer_id 
% abcbook-link-0 https://www.youtube.com/watch?v=Wq5zdT5R3PI
% abcbook-link-title-0 No Corn On Tygart
% abcbook-boost 0
% abcbook-difficulty 0
% abcbook-tags old time tunes
% abcbook-tablature 
% abcbook-transpose 
% abcbook-tuning GDAD
% abcbook-lastupdated 1739163556217
% abcbook-src-url 
% abcbook-soundfonts 
% abcbook-repeats 1


